!!!!SEGMENT: pl-sa--278-a-vii-38_zandtfelder-nicolaus-joseph-ignatius--alma-redemptoris-mater.krn
!!!cenid: 17xx:635
!!!COM: Zandtfelder, Nicolaus Joseph Ignatius
!!!COM-rismid: pe41012679
!!!CDT: <1726->1726
!!!CNT:
!!!OTL: Alma redemptoris mater
!!!PDT: 1726
!!!AGN:
!!!SMS-siglum: PL-SA
!!!SMS-shelfmark: 278/A VII 38
!!!SMS-shelfwork: W
!!!SMS-variant:
!!!SMS-altvar:
!!!NIFC-rismid: 1001039785
!!!URL-scan: http://bc.bdsandomierz.pl/dlibra/publication/1761/edition/1729/content
!!!ONB-nifc:
!!!AIN: 1 organ
!!!key:
**kern	**fba	**kernyy	**kernyy	**kernyy	**text	**kernyy	**text	**kernyy	**text	**kernyy	**text	**kernyy	**kernyy
*part9	*part9	*part8	*part7	*part6	*part6	*part5	*part5	*part4	*part4	*part3	*part3	*part2	*part1
*staff9	*	*staff8	*staff7	*staff6	*staff6	*staff5	*staff5	*staff4	*staff4	*staff3	*staff3	*staff2	*staff1
*Iorgan	*	*	*	*	*	*	*	*	*	*	*	*	*
*I"Con Organo	*	*I"Violino II	*I"Violino I	*I"Baſso	*	*I"Tenore	*	*I"Alto	*	*I"Canto	*	*I"Clarino II	*I"Clarino I
*I'Org	*	*I'Vn II	*I'Vn I	*I'B.	*	*I'T.	*	*I'A.	*	*I'C.	*	*I'Clar II	*I'Clar II
*group4	*	*group3	*group3	*group2	*	*group2	*	*group2	*	*group2	*	*group1	*group1
*clefF4	*	*clefG2	*clefG2	*clefF4	*	*clefC4	*	*clefC3	*	*clefC1	*	*clefG2	*clefG2
*k[]	*	*k[]	*k[]	*k[]	*	*k[]	*	*k[]	*	*k[]	*	*k[]	*k[]
*C:	*	*C:	*C:	*C:	*	*C:	*	*C:	*	*C:	*	*C:	*C:
*M2/2	*	*M2/2	*M2/2	*M2/2	*	*M2/2	*	*M2/2	*	*M2/2	*	*M2/2	*M2/2
*met(c|)	*	*met(c|)	*met(c|)	*met(c|)	*	*met(c|)	*	*met(c)	*	*met(c|)	*	*met(c|)	*met(c|)
=1	=1	=1	=1	=1	=1	=1	=1	=1	=1	=1	=1	=1	=1
!	!	!LO:TX:a:t=Vivace	!LO:TX:a:t=Vivace	!	!	!LO:TX:a:t=P:problem=8\right&colon; global	!	!LO:TX:a:t=P:problem=8\right&colon; global	!	!LO:TX:a:t=P:problem=8\right&colon; global	!	!	!
!LO:TX:b:t=Tutti	!	!LO:TX:a:t=P:problem=16\right&colon; global	!LO:TX:a:t=P:problem=16\right&colon; global	!LO:TX:a:t=Vivace	!	!	!	!LO:TX:a:t=Vivace	!	!LO:TX:a:t=Vivace	!	!LO:TX:a:t=P:problem= brak partii Clarini wymienionej na stronie tytułowej	!LO:TX:a:t=P:problem=brak partii Clarini wymienionej na stronie tytułowej
!LO:TX:b:t=Alma	!	!LO:TX:b:t=Alma	!LO:TX:b:t=Alma	!	!	!	!	!	!	!	!	!	!
8C/L	.	16cc\LL	16ee\LL	8C/	Al-	8c\	Al-	8g\	Al-	8ee\	Al-	1ryy	1ryy
.	.	16cc\	16ee\	.	.	.	.	.	.	.	.	.	.
8C/	.	16cc\	16ee\	8C/	-ma	8c\	-ma	8g\	-ma	8ee\	-ma	.	.
.	.	16cc\JJ	16ee\JJ	.	.	.	.	.	.	.	.	.	.
8C/	.	16cc\LL	16ee\LL	8C/	al-	8G/	{al-	8g\	al-	8ee\	al-	.	.
.	.	16ee\	16gg\	.	.	.	.	.	.	.	.	.	.
8C/J	.	16cc\	16ee\	8C/	-ma	8c\	-ma}	8g\	-ma	8ee\	-ma	.	.
.	.	16ee\JJ	16gg\JJ	.	.	.	.	.	.	.	.	.	.
!LO:TX:a:t=P:problem=8\right&colon; global	!	!	!	!LO:TX:a:t=P:problem=8\right&colon; global	!	!	!	!	!	!	!	!	!
8G\L	.	16b\LL	16gg\LL	8G\	Re-	8B\	Re-	8g\	Re-	8dd\	Re-	.	.
.	.	16dd\	16bb\	.	.	.	.	.	.	.	.	.	.
8G\	.	16b\	16gg\	8G\	-dem-	8B\	-dem-	8g\	-dem-	8dd\	-dem-	.	.
.	.	16dd\JJ	16bb\JJ	.	.	.	.	.	.	.	.	.	.
8G\	.	16b\LL	16gg\LL	8GG/	-pto-	8B\	-pto-	8.g\	-pto-	8dd\	-pto-	.	.
.	.	16dd\	16bb\	.	.	.	.	.	.	.	.	.	.
8G\J	.	16b\	16gg\	8GG/	-ris	8B\	-ris	.	.	8dd\	-ris	.	.
!	!	!	!	!	!	!	!	!LO:TX:a:t=P:problem=16\right&colon; global	!	!	!	!	!
.	.	16dd\JJ	16bb\JJ	.	.	.	.	16g\	-ris	.	.	.	.
=2	=2	=2	=2	=2	=2	=2	=2	=2	=2	=2	=2	=2	=2
8C/L	.	16ee\LL	16ccc\LL	8C/	Ma-	8c\	Ma-	8g\	Ma-	8ee\	Ma-	1ryy	1ryy
.	.	16cc\	16ee\	.	.	.	.	.	.	.	.	.	.
8C/	.	16cc\	16ee\	8C/	-ter	8c\	-ter	8g\	-ter	8ee\	-ter	.	.
.	.	16cc\JJ	16ee\JJ	.	.	.	.	.	.	.	.	.	.
8C/	.	16cc\LL	16ee\LL	4r	.	4r	.	4r	.	4r	.	.	.
.	.	16cc\	16dd\	.	.	.	.	.	.	.	.	.	.
8C/J	.	16cc\	16ee\	.	.	.	.	.	.	.	.	.	.
.	.	16cc\JJ	16ff\JJ	.	.	.	.	.	.	.	.	.	.
!LO:TX:t=P:problem=mixed beam	!	!	!	!	!	!	!	!	!	!	!	!	!
8G\L	.	16dd\LL	16bb\LL	2r	.	2r	.	2r	.	2r	.	.	.
.	.	16dd\	16bb\	.	.	.	.	.	.	.	.	.	.
8G\	.	16dd\	16bb\	.	.	.	.	.	.	.	.	.	.
.	.	16dd\JJ	16bb\JJ	.	.	.	.	.	.	.	.	.	.
8GG/	.	16dd\LL	16bb\LL	.	.	.	.	.	.	.	.	.	.
.	.	16ee\	16ccc\	.	.	.	.	.	.	.	.	.	.
8GG/J	.	16cc\	16aa\	.	.	.	.	.	.	.	.	.	.
.	.	16dd\JJ	16bb\JJ	.	.	.	.	.	.	.	.	.	.
=3	=3	=3	=3	=3	=3	=3	=3	=3	=3	=3	=3	=3	=3
8C/L	.	16ee\LL	16ccc\LL	8C/	al-	8c\	{Al-	8g\	{Al-	8ee\	{Al-	1ryy	1ryy
.	.	16cc\	16ee\	.	.	.	.	.	.	.	.	.	.
8C/	.	16cc\	16ee\	8C/	-ma	8c\	-ma	8g\	-ma	8ee\	-ma	.	.
.	.	16cc\JJ	16ee\JJ	.	.	.	.	.	.	.	.	.	.
8C/	.	16cc\LL	16ee\LL	8C/	{al-	8G/	al-	8g\	al-	8ee\	al-	.	.
.	.	16ee\	16gg\	.	.	.	.	.	.	.	.	.	.
8C/J	.	16cc\	16ee\	8C/	-ma}	8c\	-ma	8g\	-ma	8ee\	-ma	.	.
.	.	16ee\JJ	16gg\JJ	.	.	.	.	.	.	.	.	.	.
!LO:TX:t=P:problem=mixed beam	!	!	!LO:LB:g=original	!	!	!	!	!	!	!	!	!	!
8G\L	.	16b\LL	16gg\LL	8G\	Re-	8B\	Re-	8g\	Re-	8dd\	Re-	.	.
.	.	16dd\	16bb\	.	.	.	.	.	.	.	.	.	.
8G\	.	16b\	16gg\	8G\	-dem-	8B\	-dem-	8g\	-dem-	8dd\	-dem-	.	.
.	.	16dd\JJ	16bb\JJ	.	.	.	.	.	.	.	.	.	.
!	!	!LO:LB:g=original	!	!	!	!	!	!	!	!	!	!	!
8GG/	.	16b\LL	16gg\LL	8GG/	-pto-	8.B\	-pto-	8.g\	-pto-	8dd\	-pto-	.	.
.	.	16dd\	16bb\	.	.	.	.	.	.	.	.	.	.
8GG/J	.	16b\	16gg\	8GG/	-ris	.	.	.	.	8dd\	-ris	.	.
!	!	!	!	!	!	!LO:TX:a:t=P:problem=16\right&colon; global	!	!	!	!	!	!	!
.	.	16dd\JJ	16bb\JJ	.	.	16B\	-ris	16g\	-ris	.	.	.	.
=4	=4	=4	=4	=4	=4	=4	=4	=4	=4	=4	=4	=4	=4
!LO:TX:t=P:problem=mixed beam	!	!LO:TX:a:t=P:problem=8\right&colon; global	!	!	!	!	!	!	!	!	!	!	!
8C/L	.	8ee\L	8ccc\L	8C/	Ma-	8c\	Ma-	8g\	Ma-	8ee\	Ma-	1ryy	1ryy
!	!	!	!	!	!	!	!	!	!	!LO:TX:a:t=P:problem=16\right&colon; global	!	!	!
8c\J	.	16ee\L	16ccc\L	16C/	-ter	16c\	-ter}	16g\	-ter}	16ee\	-ter}	.	.
!	!	!	!	!LO:TX:a:t=P:problem=8\right&colon; global	!	!	!	!	!	!	!	!	!
.	.	16ee\JJ	16gg\JJ	16c\	quae	16c\	quae	16g\	quae	16ee\	quae	.	.
!	!	!	!	!LO:LB:g=original	!	!	!	!LO:LB:g=original	!	!	!	!	!
8B\L	6	8dd\L	16gg\LL	8B\	per-	8d\	per-	8g\	per-	8dd\	per-	.	.
.	.	.	16gg\	.	.	.	.	.	.	.	.	.	.
!LO:TX:a:t=P:problem=16\right&colon; global	!	!	!	!	!	!	!	!	!	!	!	!	!
16A\L	6|	16dd\L	16ff#X\	16A\	-vi-	16A/	-vi-	16a\	-vi-	16cc\	-vi-	.	.
16B\JJ	6	16dd\JJ	16gg\JJ	16B\	-a	16d\	-a	16g\	-a	16dd\	-a	.	.
!	!	!	!	!	!	!LO:LB:g=original	!	!	!	!LO:LB:g=original	!	!	!
16c\LL	.	16cc\LL	16gg\LL	16c\	cae-	16c\	cae-	16g\	cae-	16ee\	cae-	.	.
16B\	.	16dd\	16gg\	16B\	-li	16d\	-li	16g\	-li	16dd\	-li	.	.
16A\	.	16cc\	16aa\	16A\	por-	16A/	por-	16f#X\	por-	16cc\	por-	.	.
16G\JJ	.	16dd\JJ	16bb\JJ	16G\	-ta	16d\	-ta	16g\	-ta	16b\	-ta	.	.
8D/L	#	8ff#X\L	8aa\L	8D/	ma-	8d\	ma-	8f#\	ma-	8a\	ma-	.	.
8BB/J	6	16gg\L	16bb\L	16BB/	-nes	16d\	-nes	16g\	-nes	16b\	-nes	.	.
.	.	16gg\JJ	16bb\JJ	16BB/	et	16d\	et	16g\	et	16b\	et	.	.
=5	=5	=5	=5	=5	=5	=5	=5	=5	=5	=5	=5	=5	=5
8C/L	.	16ee\LL	16gg\LL	8C/	ſtel-	8e\	ſtel-	8e\	ſtel-	8g/	ſtel-	1ryy	1ryy
.	.	16ee\	16gg\	.	.	.	.	.	.	.	.	.	.
8GG/J	.	16gg\	16bb\	8GG/	-la	8d\	-la	8g\	-la	8g/	-la	.	.
.	.	16gg\JJ	16bb\JJ	.	.	.	.	.	.	.	.	.	.
!LO:LB:g=original	!	!	!	!	!	!	!	!	!	!	!	!	!
8D/L	.	16ff#X\LL	16aa\LL	8D/L	ma-	4d\	ma-	8a\L	ma-	8g/L	ma-	.	.
.	.	16ee\	16ccc\	.	.	.	.	.	.	.	.	.	.
8DD/J	4	16ff#\	16bb\	16C/L	.	.	.	16g\L	.	8f#X/J	.	.	.
.	3	16ff#\JJ	16aa\JJ	16D/JJ	.	.	.	16a\JJ	.	.	.	.	.
!LO:TX:t=P:problem=mixed beam	!	!	!	!	!	!	!	!	!	!	!	!	!
8GG/L	.	8gg\L	16bb\LL	8GG/	-ris	8d\	-ris	8b\	-ris	8g/	-ris	.	.
.	.	.	16bb\	.	.	.	.	.	.	.	.	.	.
8E\J	6	8gg\J	16ccc\	8E\	et	8e\	et	8g\	et	8cc\	.	.	.
!	!	!	!LO:TX:a:t=P:problem= brak jednej grupy w takcie	!	!	!	!	!	!	!	!	!	!
.	.	.	16ccc\JJ	.	.	.	.	.	.	.	.	.	.
8F\L	5 6	16ffn\LL	4ryy	8F\	ſtel-	8c\	ſtel-	8a\	ſtel-	8cc\	ſuc-	.	.
.	.	16ff\	.	.	.	.	.	.	.	.	.	.	.
8C\J	.	16ee\	.	8C/	-la	8e\	-la	8g\	-la	16cc\	-cur-	.	.
.	.	16ee\JJ	.	.	.	.	.	.	.	16dd\	-re	.	.
=6	=6	=6	=6	=6	=6	=6	=6	=6	=6	=6	=6	=6	=6
!LO:TX:t=P:problem=mixed beam	!	!	!	!	!	!	!	!	!	!	!	!	!
8G\L	6 4	8dd\L	16ccc\LL	8G\L	ma-	8d\L	ma-	4g\	ma-	8ee\L	ca-	1ryy	1ryy
.	.	.	16ddd\	.	.	.	.	.	.	.	.	.	.
!	!	!	!	!LO:TX:t=P:problem=mixed beam	!	!	!	!	!	!	!	!	!
8GG/J	5 3	16cc\L	16bb\	8GG/J	.	16c\L	.	.	.	16dd\L	-den-	.	.
.	.	16dd\J	16bb\JJ	.	.	16d\JJ	.	.	.	16cc\JJ	.	.	.
4C/	.	8ee\J	4ccc\	8C/	-ris	8e\	-ris	8g\	-ris	8cc\	-ti	.	.
.	.	8r	.	8r	.	8r	.	8r	.	8r	.	.	.
!LO:TX:a:t=P:problem= podwójna kreska taktowa	!	!	!LO:TX:a:t=P:problem= podwójna kreska taktowa	!	!	!	!	!	!	!	!	!	!
2r	.	2r	2r	2r	.	2r	.	2r	.	2r	.	.	.
=7	=7	=7	=7	=7	=7	=7	=7	=7	=7	=7	=7	=7	=7
!LO:TX:b:t=ſurgere	!	!	!LO:TX:a:i:t=solo C	!	!	!	!	!LO:TX:b:i:t=Canto	!	!	!	!	!
8C/L	.	00r	0r	00r	.	00r	.	00r	.	8.g/	ſur-	1ryy	1ryy
8D/	.	.	.	.	.	.	.	.	.	.	.	.	.
!	!	!	!	!	!	!	!	!	!	!LO:TX:b:t=solo	!	!	!
.	.	.	.	.	.	.	.	.	.	16g/	-ge-	.	.
!LO:TX:a:t=solo	!	!	!	!	!	!	!	!	!	!	!	!	!
8E/	6	.	.	.	.	.	.	.	.	8g/	-re	.	.
8C/J	.	.	.	.	.	.	.	.	.	8g/	qui	.	.
!	!	!	!	!	!	!	!	!	!	!LO:LB:g=original	!	!	!
8F\L	.	.	.	.	.	.	.	.	.	8a\	cu-	.	.
16F\L	.	.	.	.	.	.	.	.	.	8a\	-rat	.	.
16E\JJ	6	.	.	.	.	.	.	.	.	.	.	.	.
!LO:TX:t=P:problem=mixed beam	!	!	!	!	!	!	!	!	!	!	!	!	!
8D/L	6	.	.	.	.	.	.	.	.	8b\	cu-	.	.
8DD/J	.	.	.	.	.	.	.	.	.	16a\LL	-rat	.	.
.	.	.	.	.	.	.	.	.	.	16b\JJ	.	.	.
=8	=8	=8	=8	=8	=8	=8	=8	=8	=8	=8	=8	=8	=8
8C\L	.	.	.	.	.	.	.	.	.	8.cc\	po-	1ryy	1ryy
8D\	.	.	.	.	.	.	.	.	.	.	.	.	.
.	.	.	.	.	.	.	.	.	.	16cc\	-pu-	.	.
8E\	6	.	.	.	.	.	.	.	.	8cc\	-lo	.	.
8C\J	.	.	.	.	.	.	.	.	.	8r	.	.	.
8GG/L	.	.	.	.	.	.	.	.	.	8.dd\	ſur-	.	.
8AA/	.	.	.	.	.	.	.	.	.	.	.	.	.
.	.	.	.	.	.	.	.	.	.	16dd\	-ge-	.	.
8BB/	6	.	.	.	.	.	.	.	.	8dd\	-re	.	.
8GG/J	.	.	.	.	.	.	.	.	.	8dd\	qui	.	.
=9	=9	=9	=9	=9	=9	=9	=9	=9	=9	=9	=9	=9	=9
8GG/L	.	.	2r	.	.	.	.	.	.	8dd\	cu-	1ryy	1ryy
8AA/	.	.	.	.	.	.	.	.	.	8dd\	-rat	.	.
8BB/	.	.	.	.	.	.	.	.	.	8dd\	cu-	.	.
8GG/J	.	.	.	.	.	.	.	.	.	8gg\	-rat	.	.
!	!	!	!LO:LB:g=original	!	!	!	!	!	!	!	!	!	!
8F\L	5	.	4r	.	.	.	.	.	.	8ee\	po-	.	.
8G\J	3	.	.	.	.	.	.	.	.	16dd\LL	-pu-	.	.
.	.	.	.	.	.	.	.	.	.	16cc\JJ	.	.	.
!LO:TX:t=P:problem=mixed beam	!	!	!	!	!	!	!	!	!	!	!	!	!
8C\L	.	.	8r	.	.	.	.	.	.	8cc\	-lo	.	.
!	!	!	!LO:TX:a:t=P:problem=8\right&colon; global	!	!	!	!	!	!	!	!	!	!
8CC/J	4	.	8gg\	.	.	.	.	.	.	8r	.	.	.
.	3	.	.	.	.	.	.	.	.	.	.	.	.
!LO:TX:a:t=P:problem= brak kreski taktowej	!	!	!	!	!	!	!	!	!	!	!	!	!
=10	=10	=10	=10	=10	=10	=10	=10	=10	=10	=10	=10	=10	=10
!	!	!	!LO:TX:t=P:problem=mixed beam	!	!	!	!	!	!	!	!	!	!
8F\L	.	.	8aa\L	.	.	.	.	.	.	2r	.	1ryy	1ryy
16F\L	.	.	8a\J	.	.	.	.	.	.	.	.	.	.
16E\JJ	6	.	.	.	.	.	.	.	.	.	.	.	.
!LO:LB:g=original	!	!	!LO:TX:t=P:problem=mixed beam	!	!	!	!	!	!	!	!	!	!
8D/L	6	.	8bb\L	.	.	.	.	.	.	.	.	.	.
8DD/J	.	.	8b\J	.	.	.	.	.	.	.	.	.	.
!	!	!	!LO:TX:t=P:problem=mixed beam	!	!	!	!	!	!	!	!	!	!
8C/L	6|	.	8ccc\L	.	.	.	.	.	.	4r	.	.	.
8AA/J	.	.	8cc\J	.	.	.	.	.	.	.	.	.	.
8GG/L	.	.	4r	.	.	.	.	.	.	8dd\	tu	.	.
8BB/J	.	.	.	.	.	.	.	.	.	8dd\	quae	.	.
=11	=11	=11	=11	=11	=11	=11	=11	=11	=11	=11	=11	=11	=11
8C/L	.	00r	1r	00r	.	00r	.	00r	.	8cc\	ge-	1ryy	1ryy
8GG/J	.	.	.	.	.	.	.	.	.	16b\LL	-nu-	.	.
.	.	.	.	.	.	.	.	.	.	16a\JJ	.	.	.
!	!	!	!	!	!	!	!	!	!	!LO:LB:g=original	!	!	!
8D/L	6 4	.	.	.	.	.	.	.	.	8b\LL	-i-	.	.
8DD/J	5 3	.	.	.	.	.	.	.	.	16a\	.	.	.
.	.	.	.	.	.	.	.	.	.	16g\JJ	.	.	.
!LO:TX:t=P:problem=mixed beam	!	!	!	!	!	!	!	!	!	!	!	!	!
8G\L	.	.	.	.	.	.	.	.	.	8g/	-sti	.	.
8BB/J	.	.	.	.	.	.	.	.	.	8r	.	.	.
8C\L	.	.	.	.	.	.	.	.	.	8r	.	.	.
8F\J	5	.	.	.	.	.	.	.	.	16cc\	ge-	.	.
.	6	.	.	.	.	.	.	.	.	16dd\	-nu-	.	.
=12	=12	=12	=12	=12	=12	=12	=12	=12	=12	=12	=12	=12	=12
!LO:TX:t=P:problem=mixed beam	!	!	!	!	!	!	!	!	!	!	!	!	!
8G\L	4	.	4r	.	.	.	.	.	.	8b\L	-i-	1ryy	1ryy
8GG/J	3	.	.	.	.	.	.	.	.	16a\L	.	.	.
.	.	.	.	.	.	.	.	.	.	16b\JJ	.	.	.
8C/L	.	.	8r	.	.	.	.	.	.	8cc\	-sti	.	.
16C/L	.	.	16ee\LL	.	.	.	.	.	.	8r	.	.	.
16BB/JJ	6	.	16dd\JJ	.	.	.	.	.	.	.	.	.	.
8AA/L	6|	.	8.cc\L	.	.	.	.	.	.	2r	.	.	.
8GG/J	.	.	.	.	.	.	.	.	.	.	.	.	.
.	.	.	16b\Jk	.	.	.	.	.	.	.	.	.	.
!LO:TX:t=P:problem=mixed beam	!	!	!	!	!	!	!	!	!	!	!	!	!
8D\L	#	.	16a\LL	.	.	.	.	.	.	.	.	.	.
.	.	.	16dd\	.	.	.	.	.	.	.	.	.	.
8DD/J	.	.	16cc\	.	.	.	.	.	.	.	.	.	.
.	.	.	16dd\JJ	.	.	.	.	.	.	.	.	.	.
=13	=13	=13	=13	=13	=13	=13	=13	=13	=13	=13	=13	=13	=13
16GG/LL	.	.	16b/LL	.	.	.	.	.	.	00r	.	1ryy	1ryy
16AA/	6|	.	16a/J	.	.	.	.	.	.	.	.	.	.
16BB/	6	.	8g/J	.	.	.	.	.	.	.	.	.	.
16AA/JJ	6|	.	.	.	.	.	.	.	.	.	.	.	.
!LO:TX:t=P:problem=mixed beam	!	!	!	!	!	!	!	!	!	!	!	!	!
8GG\L	.	.	8r	.	.	.	.	.	.	.	.	.	.
8E/J	6	.	8cc\	.	.	.	.	.	.	.	.	.	.
!LO:TX:t=P:problem=mixed beam	!	!	!	!	!	!	!	!	!	!	!	!	!
8F\L	.	.	8dd\L	.	.	.	.	.	.	.	.	.	.
8C/J	.	.	8ee\	.	.	.	.	.	.	.	.	.	.
8D/L	3	.	8ff\	.	.	.	.	.	.	.	.	.	.
8C/J	6_	.	8ff\J	.	.	.	.	.	.	.	.	.	.
=14	=14	=14	=14	=14	=14	=14	=14	=14	=14	=14	=14	=14	=14
8D/L	6 3	.	8ff\L	.	.	.	.	.	.	.	.	1ryy	1ryy
8GG/J	4	.	16ee\L	.	.	.	.	.	.	.	.	.	.
.	.	.	16dd\JJ	.	.	.	.	.	.	.	.	.	.
16C/LL	.	.	8ee\L	.	.	.	.	.	.	.	.	.	.
16D/	6	.	.	.	.	.	.	.	.	.	.	.	.
16C/	.	.	8cc\J	.	.	.	.	.	.	.	.	.	.
16D/JJ	.	.	.	.	.	.	.	.	.	.	.	.	.
!LO:LB:g=original	!	!	!	!	!	!	!	!	!	!	!	!	!
8E\L	6	.	8r	.	.	.	.	.	.	.	.	.	.
8C\	.	.	8gg\	.	.	.	.	.	.	.	.	.	.
8F\	.	.	8aa\L	.	.	.	.	.	.	.	.	.	.
8D\J	6	.	8ff\J	.	.	.	.	.	.	.	.	.	.
=15	=15	=15	=15	=15	=15	=15	=15	=15	=15	=15	=15	=15	=15
!LO:TX:t=P:problem=mixed beam	!	!	!	!	!	!	!	!	!	!	!	!	!
8G\L	.	00r	8bb\L	00r	.	00r	.	1r	.	.	.	1ryy	1ryy
8GG/J	3	.	16b\L	.	.	.	.	.	.	.	.	.	.
.	.	.	16bb\JJ	.	.	.	.	.	.	.	.	.	.
!	!	!	!LO:LB:g=original	!	!	!	!	!	!	!	!	!	!
!	!	!	!LO:TX:t=P:problem=mixed beam	!	!	!	!	!	!	!	!	!	!
16C\LL	.	.	8ccc\L	.	.	.	.	.	.	.	.	.	.
16D\	6	.	.	.	.	.	.	.	.	.	.	.	.
16E\	6	.	8cc\J	.	.	.	.	.	.	.	.	.	.
16D\JJ	6	.	.	.	.	.	.	.	.	.	.	.	.
8C\L	.	.	8r	.	.	.	.	.	.	.	.	.	.
8F\J	.	.	8dd\	.	.	.	.	.	.	.	.	.	.
8G\L	.	.	8ee\L	.	.	.	.	.	.	.	.	.	.
16E\L	.	.	16cc\L	.	.	.	.	.	.	.	.	.	.
16F\JJ	.	.	16dd\JJ	.	.	.	.	.	.	.	.	.	.
!	!	!	!	!	!	!	!	!LO:LB:g=original	!	!	!	!	!
=16	=16	=16	=16	=16	=16	=16	=16	=16	=16	=16	=16	=16	=16
!LO:TX:t=P:problem=mixed beam	!	!	!	!	!	!	!	!	!	!	!	!	!
8G\L	.	.	8g/L	.	.	.	.	4r	.	.	.	1ryy	1ryy
8GG/J	.	.	8b/J	.	.	.	.	.	.	.	.	.	.
!	!	!	!LO:TX:b:t=Natura A	!	!	!	!	!	!	!	!	!	!
4C/	.	.	8cc\	.	.	.	.	8r	.	.	.	.	.
!	!	!	!	!	!	!	!	!LO:TX:b:t=solo	!	!	!	!	!
.	.	.	8r	.	.	.	.	8g\	Na-	.	.	.	.
!LO:TX:b:i:t=s.	!	!	!	!	!	!	!	!	!	!	!	!	!
!LO:TX:b:t=Natura A	!	!	!	!	!	!	!	!	!	!	!	!	!
16C/LL	.	.	2r	.	.	.	.	4g\	-tu-	.	.	.	.
!LO:TX:t=P:problem=mixed beam	!	!	!	!	!	!	!	!	!	!	!	!	!
16c\	8_	.	.	.	.	.	.	.	.	.	.	.	.
16B\	.	.	.	.	.	.	.	.	.	.	.	.	.
16A\JJ	.	.	.	.	.	.	.	.	.	.	.	.	.
16G\LL	.	.	.	.	.	.	.	8g\	-ra	.	.	.	.
16F\	x	.	.	.	.	.	.	.	.	.	.	.	.
16E\	.	.	.	.	.	.	.	8g\	na-	.	.	.	.
16D\JJ	.	.	.	.	.	.	.	.	.	.	.	.	.
=17	=17	=17	=17	=17	=17	=17	=17	=17	=17	=17	=17	=17	=17
8C/L	6 5	.	4r	.	.	.	.	8cc\	-tu-	00r	.	1ryy	1ryy
8D/	7 #	.	.	.	.	.	.	16b\	-ra	.	.	.	.
.	.	.	.	.	.	.	.	16a\	mi-	.	.	.	.
8GG/J	.	.	8r	.	.	.	.	8b\	-ran-	.	.	.	.
8r	.	.	8gg\	.	.	.	.	8g\	-te	.	.	.	.
!	!	!	!LO:TX:t=P:problem=mixed beam	!	!	!	!	!	!	!	!	!	!
8G\L	.	.	16gg\LL	.	.	.	.	2r	.	.	.	.	.
.	.	.	16g/	.	.	.	.	.	.	.	.	.	.
8A\	.	.	16g/	.	.	.	.	.	.	.	.	.	.
.	.	.	16g/JJ	.	.	.	.	.	.	.	.	.	.
!	!	!	!LO:TX:t=P:problem=mixed beam	!	!	!	!	!	!	!	!	!	!
8B\	6	.	8g/L	.	.	.	.	.	.	.	.	.	.
8G\J	.	.	8gg\J	.	.	.	.	.	.	.	.	.	.
=18	=18	=18	=18	=18	=18	=18	=18	=18	=18	=18	=18	=18	=18
8A\L	6| 3	.	8ccc\L	.	.	.	.	4r	.	.	.	1ryy	1ryy
8D\J	#	.	16bb\L	.	.	.	.	.	.	.	.	.	.
.	.	.	16aa\JJ	.	.	.	.	.	.	.	.	.	.
4GG/	.	.	8bb\L	.	.	.	.	8r	.	.	.	.	.
.	.	.	8gg\J	.	.	.	.	8g\	Na-	.	.	.	.
!LO:LB:g=original	!	!	!	!	!	!	!	!	!	!	!	!	!
16C\LL	.	.	2r	.	.	.	.	4g\	-tu-	.	.	.	.
16c\	.	.	.	.	.	.	.	.	.	.	.	.	.
16B\	.	.	.	.	.	.	.	.	.	.	.	.	.
16A\JJ	.	.	.	.	.	.	.	.	.	.	.	.	.
16G\LL	.	.	.	.	.	.	.	8g\	-ra	.	.	.	.
16F\	.	.	.	.	.	.	.	.	.	.	.	.	.
16E\	.	.	.	.	.	.	.	8g\	na-	.	.	.	.
16D\JJ	.	.	.	.	.	.	.	.	.	.	.	.	.
=19	=19	=19	=19	=19	=19	=19	=19	=19	=19	=19	=19	=19	=19
8C/L	6	00r	1r	00r	.	00r	.	8cc\	-tu-	.	.	1ryy	1ryy
8D/J	6 #	.	.	.	.	.	.	16b\	-ra	.	.	.	.
.	5	.	.	.	.	.	.	16a\	mi-	.	.	.	.
8GG/L	.	.	.	.	.	.	.	8b\	-ran-	.	.	.	.
8AA/	.	.	.	.	.	.	.	8g\	-te	.	.	.	.
8BB/	6	.	.	.	.	.	.	8g\	tu-	.	.	.	.
8GG/J	.	.	.	.	.	.	.	8g\	-um	.	.	.	.
8D\L	.	.	.	.	.	.	.	8f\	ſanc-	.	.	.	.
16E\L	6	.	.	.	.	.	.	8e\	-tu(m)	.	.	.	.
16F\JJ	.	.	.	.	.	.	.	.	.	.	.	.	.
!	!	!	!	!	!	!	!	!LO:LB:g=original	!	!	!	!	!
=20	=20	=20	=20	=20	=20	=20	=20	=20	=20	=20	=20	=20	=20
8G\L	.	.	2r	.	.	.	.	8.d\	ge-	.	.	1ryy	1ryy
8A\J	6	.	.	.	.	.	.	.	.	.	.	.	.
.	.	.	.	.	.	.	.	16c/	-ni-	.	.	.	.
8G\L	.	.	.	.	.	.	.	8B/	-to-	.	.	.	.
16E\L	6	.	.	.	.	.	.	16c\LL	-rem	.	.	.	.
16F\JJ	.	.	.	.	.	.	.	16d\JJ	.	.	.	.	.
!LO:TX:t=P:problem=mixed beam	!	!	!	!	!	!	!	!	!	!	!	!	!
8G\L	6	.	4r	.	.	.	.	8e\	ge-	.	.	.	.
8GG/J	5 3	.	.	.	.	.	.	(16d\LL	-ni-	.	.	.	.
.	.	.	.	.	.	.	.	16c\JJ)	.	.	.	.	.
8C/	.	.	8r	.	.	.	.	8c/	-to-	.	.	.	.
8r	.	.	16gg\LL	.	.	.	.	8c/	-rem	.	.	.	.
.	.	.	16aa\JJ	.	.	.	.	.	.	.	.	.	.
=21	=21	=21	=21	=21	=21	=21	=21	=21	=21	=21	=21	=21	=21
8D\L	.	.	8.ff\L	.	.	.	.	00r	.	00r	.	1ryy	1ryy
16E\L	.	.	.	.	.	.	.	.	.	.	.	.	.
16F\JJ	.	.	16dd\Jk	.	.	.	.	.	.	.	.	.	.
8G\L	.	.	16dd\LL	.	.	.	.	.	.	.	.	.	.
.	.	.	16ee\	.	.	.	.	.	.	.	.	.	.
8A\J	.	.	16cc\	.	.	.	.	.	.	.	.	.	.
.	.	.	16dd\JJ	.	.	.	.	.	.	.	.	.	.
!LO:TX:t=P:problem=mixed beam	!	!	!	!	!	!	!	!	!	!	!	!	!
8G\L	.	.	16b/LL	.	.	.	.	.	.	.	.	.	.
.	.	.	16a/J	.	.	.	.	.	.	.	.	.	.
8C/J	6|	.	8g/J	.	.	.	.	.	.	.	.	.	.
!	!	!	!LO:LB:g=original	!	!	!	!	!	!	!	!	!	!
8F\L	.	.	8cc'\L	.	.	.	.	.	.	.	.	.	.
8E\J	6	.	8cc'\J	.	.	.	.	.	.	.	.	.	.
!LO:LB:g=original	!	!	!	!	!	!	!	!	!	!	!	!	!
=22	=22	=22	=22	=22	=22	=22	=22	=22	=22	=22	=22	=22	=22
8F\L	.	.	8cc'\L	.	.	.	.	.	.	.	.	1ryy	1ryy
8C\J	.	.	8cc'\J	.	.	.	.	.	.	.	.	.	.
8D\L	.	.	(16ff\LL	.	.	.	.	.	.	.	.	.	.
.	.	.	16ee\JJ)	.	.	.	.	.	.	.	.	.	.
16E\L	6	.	(16ee\LL	.	.	.	.	.	.	.	.	.	.
16F\JJ	.	.	16dd\JJ)	.	.	.	.	.	.	.	.	.	.
!LO:TX:t=P:problem=mixed beam	!	!	!	!	!	!	!	!	!	!	!	!	!
8G\L	3	.	16dd\LL	.	.	.	.	.	.	.	.	.	.
.	.	.	16ee\	.	.	.	.	.	.	.	.	.	.
8A\	3	.	16cc\	.	.	.	.	.	.	.	.	.	.
.	.	.	16dd\JJ	.	.	.	.	.	.	.	.	.	.
8G\	.	.	16b/LL	.	.	.	.	.	.	.	.	.	.
.	.	.	16a/J	.	.	.	.	.	.	.	.	.	.
8GG/J	3	.	8b/J	.	.	.	.	.	.	.	.	.	.
=23	=23	=23	=23	=23	=23	=23	=23	=23	=23	=23	=23	=23	=23
!LO:TX:t=P:problem=mixed beam	!	!	!	!	!	!	!	!	!	!	!	!	!
8C/L	.	00r	8cc\L	00r	.	2r	.	.	.	.	.	1ryy	1ryy
8F/	6	.	8dd\J	.	.	.	.	.	.	.	.	.	.
!	!	!	!LO:TX:t=P:problem=mixed beam	!	!	!	!	!	!	!	!	!	!
8G/	4	.	8e/L	.	.	.	.	.	.	.	.	.	.
!	!	!	!LO:TX:t=P:problem=mixed beam	!	!	!	!	!	!	!	!	!	!
8GG/J	3	.	8b\J	.	.	.	.	.	.	.	.	.	.
8C/L	.	.	8cc\L	.	.	4r	.	.	.	.	.	.	.
8CC/J	.	.	8c/J	.	.	.	.	.	.	.	.	.	.
!	!	!	!LO:TX:b:i:t=T.	!	!	!LO:TX:a:t=solo	!	!	!	!	!	!	!
4r	.	.	4r	.	.	8c\	Vir-	.	.	.	.	.	.
.	.	.	.	.	.	8G/	-go	.	.	.	.	.	.
!	!	!	!	!	!	!LO:LB:g=original	!	!	!	!	!	!	!
=24	=24	=24	=24	=24	=24	=24	=24	=24	=24	=24	=24	=24	=24
!LO:TX:b:i:t=Tenor	!	!	!	!	!	!	!	!	!	!	!	!	!
2r	.	.	2r	.	.	8A/	pri-	.	.	.	.	1ryy	1ryy
.	.	.	.	.	.	16F/LL	-us	.	.	.	.	.	.
.	.	.	.	.	.	16E/JJ	.	.	.	.	.	.	.
.	.	.	.	.	.	8D/	ac	.	.	.	.	.	.
.	.	.	.	.	.	8G/	poſ-	.	.	.	.	.	.
4r	.	.	4r	.	.	8E/	-ter-	.	.	.	.	.	.
.	.	.	.	.	.	16D/LL	-ri-	.	.	.	.	.	.
.	.	.	.	.	.	16C/JJ	.	.	.	.	.	.	.
!	!	!	!	!	!	!LO:TX:a:t=P:problem= przed nutą skreślona kreska taktowa	!	!	!	!	!	!	!
8r	.	.	8r	.	.	4C/	-us	.	.	.	.	.	.
8G\	.	.	8dd\	.	.	.	.	.	.	.	.	.	.
=25	=25	=25	=25	=25	=25	=25	=25	=25	=25	=25	=25	=25	=25
!LO:TX:t=P:problem=mixed beam	!	!	!	!	!	!	!	!	!	!	!	!	!
8E\L	6	.	16ee\LL	.	.	2r	.	00r	.	00r	.	1ryy	1ryy
.	6 5	.	16b\	.	.	.	.	.	.	.	.	.	.
8F\	4	.	16cc\	.	.	.	.	.	.	.	.	.	.
.	3	.	16dd\JJ	.	.	.	.	.	.	.	.	.	.
8G\	.	.	8g/L	.	.	.	.	.	.	.	.	.	.
8GG/J	.	.	8b/J	.	.	.	.	.	.	.	.	.	.
!	!	!	!LO:TX:t=P:problem=mixed beam	!	!	!	!	!	!	!	!	!	!
8C/	.	.	8cc\L	.	.	8c\	Vir-	.	.	.	.	.	.
8r	.	.	8c/J	.	.	8G/	-go	.	.	.	.	.	.
4r	.	.	4r	.	.	8A/	pri-	.	.	.	.	.	.
.	.	.	.	.	.	16F/LL	-us	.	.	.	.	.	.
.	.	.	.	.	.	16E/JJ	.	.	.	.	.	.	.
=26	=26	=26	=26	=26	=26	=26	=26	=26	=26	=26	=26	=26	=26
2r	.	.	1r	.	.	8D/	ac	.	.	.	.	1ryy	1ryy
.	.	.	.	.	.	8G/	po-	.	.	.	.	.	.
.	.	.	.	.	.	8.E/	-ſte-	.	.	.	.	.	.
.	.	.	.	.	.	16D/	-ri-	.	.	.	.	.	.
4r	.	.	.	.	.	8C/	-us	.	.	.	.	.	.
.	.	.	.	.	.	8r	.	.	.	.	.	.	.
8BB/L	5-_	.	.	.	.	8d\	Ga-	.	.	.	.	.	.
8AA/J	.	.	.	.	.	8d\	-bri-	.	.	.	.	.	.
!LO:TX:t=P:problem=pogrubiona kreska taktowa	!	!	!	!	!	!	!	!	!	!	!	!	!
=27	=27	=27	=27	=27	=27	=27	=27	=27	=27	=27	=27	=27	=27
8BB/L	.	00r	2r	00r	.	8d\	-e-	.	.	.	.	1ryy	1ryy
8GG/J	7	.	.	.	.	16e\	-lis	.	.	.	.	.	.
.	.	.	.	.	.	16f\	ab	.	.	.	.	.	.
!LO:LB:g=original	!	!	!	!	!	!	!	!	!	!	!	!	!
16C\LL	.	.	.	.	.	8e\	o-	.	.	.	.	.	.
16D\	6	.	.	.	.	.	.	.	.	.	.	.	.
16E\	6	.	.	.	.	8c\	-re	.	.	.	.	.	.
16D\JJ	.	.	.	.	.	.	.	.	.	.	.	.	.
8C/	.	.	16gg\LL	.	.	2r	.	.	.	.	.	.	.
.	.	.	16gg\	.	.	.	.	.	.	.	.	.	.
8r	.	.	16gg\	.	.	.	.	.	.	.	.	.	.
.	.	.	16gg\JJ	.	.	.	.	.	.	.	.	.	.
16C\LL	.	.	16gg\LL	.	.	.	.	.	.	.	.	.	.
16D\	6	.	16cc\J	.	.	.	.	.	.	.	.	.	.
16E\	6	.	8cc\J	.	.	.	.	.	.	.	.	.	.
16C\JJ	.	.	.	.	.	.	.	.	.	.	.	.	.
!	!	!	!LO:LB:g=original	!	!	!	!	!	!	!	!	!	!
=28	=28	=28	=28	=28	=28	=28	=28	=28	=28	=28	=28	=28	=28
8F\L	.	.	16aa\LL	.	.	1r	.	.	.	.	.	1ryy	1ryy
.	.	.	16aa\	.	.	.	.	.	.	.	.	.	.
8E\	6	.	16aa\	.	.	.	.	.	.	.	.	.	.
.	.	.	16aa\JJ	.	.	.	.	.	.	.	.	.	.
8F\	.	.	16aa\LL	.	.	.	.	.	.	.	.	.	.
.	.	.	16dd\J	.	.	.	.	.	.	.	.	.	.
8D\J	6	.	8dd\J	.	.	.	.	.	.	.	.	.	.
!LO:TX:t=P:problem=mixed beam	!	!	!	!	!	!	!	!	!	!	!	!	!
8G\L	3	.	16bb\LL	.	.	.	.	.	.	.	.	.	.
.	.	.	16bb\	.	.	.	.	.	.	.	.	.	.
8F\	.	.	16bb\	.	.	.	.	.	.	.	.	.	.
.	.	.	16bb\JJ	.	.	.	.	.	.	.	.	.	.
8G\	.	.	16bb\LL	.	.	.	.	.	.	.	.	.	.
.	.	.	16ccc\	.	.	.	.	.	.	.	.	.	.
8GG/J	.	.	16aa\	.	.	.	.	.	.	.	.	.	.
.	.	.	16bb\JJ	.	.	.	.	.	.	.	.	.	.
!	!	!	!	!	!	!LO:LB:g=original	!	!	!	!	!	!	!
=29	=29	=29	=29	=29	=29	=29	=29	=29	=29	=29	=29	=29	=29
!	!	!	!LO:TX:t=P:problem=mixed beam	!	!	!	!	!	!	!	!	!	!
8C\L	.	.	16ccc\LL	.	.	8c\	Ga-	0r	.	0r	.	1ryy	1ryy
.	.	.	16cc/J	.	.	.	.	.	.	.	.	.	.
8D\	6	.	8cc/J	.	.	8c\	-bri-	.	.	.	.	.	.
8E\	6	.	4r	.	.	8c\	-e-	.	.	.	.	.	.
8C\J	.	.	.	.	.	8c\	-lis	.	.	.	.	.	.
8BB/L	5-_	.	2r	.	.	8d\	{Ga-	.	.	.	.	.	.
8AA/	.	.	.	.	.	8d\	-bri-	.	.	.	.	.	.
8BB/	.	.	.	.	.	8d\	-e-	.	.	.	.	.	.
8GG/J	4	.	.	.	.	16e\	-lis}	.	.	.	.	.	.
.	.	.	.	.	.	16f\	ab	.	.	.	.	.	.
=30	=30	=30	=30	=30	=30	=30	=30	=30	=30	=30	=30	=30	=30
8C\L	.	.	1r	.	.	8e\	o-	.	.	.	.	1ryy	1ryy
8D\	.	.	.	.	.	8c\	-re	.	.	.	.	.	.
8E\	.	.	.	.	.	8r	.	.	.	.	.	.	.
8BB\J	5	.	.	.	.	16d\	Ga-	.	.	.	.	.	.
.	.	.	.	.	.	16d\	-bri-	.	.	.	.	.	.
!LO:TX:t=P:problem=mixed beam	!	!	!	!	!	!	!	!	!	!	!	!	!
8C\L	.	.	.	.	.	8e\	-e-	.	.	.	.	.	.
8F\	.	.	.	.	.	16c\	-lis	.	.	.	.	.	.
.	.	.	.	.	.	16d\	ab	.	.	.	.	.	.
8G\	4	.	.	.	.	8G\L	o-	.	.	.	.	.	.
8GG\/J	3	.	.	.	.	8B\J	.	.	.	.	.	.	.
=31	=31	=31	=31	=31	=31	=31	=31	=31	=31	=31	=31	=31	=31
!	!	!	!	!	!	!	!	!	!	!LO:TX:a:t=P:problem= brak jednego taktu pauz	!	!	!
8C\L	.	1r	2r	1r	.	8c\	-re	1r	.	1ryy	.	1ryy	1ryy
8A\J	5	.	.	.	.	8f\	ab	.	.	.	.	.	.
!LO:LB:g=original	!	!	!	!	!	!	!	!	!	!	!	!	!
!LO:TX:t=P:problem=mixed beam	!	!	!	!	!	!	!	!	!	!	!	!	!
8G\L	6 4	.	.	.	.	8e\L	o-	.	.	.	.	.	.
8GG/J	5 3	.	.	.	.	16d\L	.	.	.	.	.	.	.
.	.	.	.	.	.	16c\JJ	.	.	.	.	.	.	.
8C\L	.	.	16cc\LL	.	.	8c\	-re	.	.	.	.	.	.
.	.	.	16gg\	.	.	.	.	.	.	.	.	.	.
16E\L	6	.	16cc\	.	.	8r	.	.	.	.	.	.	.
16F\JJ	6 5	.	16gg\JJ	.	.	.	.	.	.	.	.	.	.
!LO:TX:t=P:problem=mixed beam	!	!	!	!	!	!	!	!	!	!	!	!	!
8G\L	4	.	16dd\LL	.	.	4r	.	.	.	.	.	.	.
.	3	.	16bb\	.	.	.	.	.	.	.	.	.	.
8GG/J	.	.	16dd\	.	.	.	.	.	.	.	.	.	.
.	.	.	16bb\JJ	.	.	.	.	.	.	.	.	.	.
!	!	!LO:LB:g=original	!	!	!	!LO:LB:g=original	!	!	!	!	!	!	!
=32	=32	=32	=32	=32	=32	=32	=32	=32	=32	=32	=32	=32	=32
!LO:TX:b:i:t=Tutti	!	!	!LO:TX:b:t=Tutti	!	!	!	!	!	!	!	!	!	!
8C\L	.	16ee\LL	16ccc\LL	8C/	ſu-	8c\	ſu-	8g\	ſu-	8ee\	ſu	1ryy	1ryy
.	.	16ee\	16gg\	.	.	.	.	.	.	.	.	.	.
8D\	6	16dd\	16gg\	8D/	-mens	8B\	-mens	8f\	-mens	8dd\	mens	.	.
.	.	16dd\JJ	16gg\JJ	.	.	.	.	.	.	.	.	.	.
8E\	6	16cc\LL	16gg\LL	8E\	{ſu-	8c\	{ſu-	8g\	{ſu-	8cc\	{ſu	.	.
.	.	16cc\	16gg\	.	.	.	.	.	.	.	.	.	.
8C\J	.	16ee\	16gg\	8C/	-mens}	8c\	-mens}	8g\	-mens}	8ee\	mens}	.	.
.	.	16ee\JJ	16gg\JJ	.	.	.	.	.	.	.	.	.	.
8F\L	.	16ff\LL	16aa\LL	8F\	il-	8A\	il-	8a\	il-	8cc\	il	.	.
.	.	16ff\	16aa\	.	.	.	.	.	.	.	.	.	.
8E\	6	16cc\	16gg\	8E\	-lud	8c\	-lud	8g\	-lud	8cc\	lud	.	.
.	.	16cc\JJ	16gg\JJ	.	.	.	.	.	.	.	.	.	.
8F\	.	16ff\LL	16aa\LL	8F\	a-	8A\	a-	8a\	a-	8cc\	a	.	.
.	.	16ff\	16aa\	.	.	.	.	.	.	.	.	.	.
8C\J	.	16ee\	16ccc\	8C/	-ve	8c\	-ve	8g\	-ve	8cc\	ve	.	.
.	.	16ee\JJ	16ccc\JJ	.	.	.	.	.	.	.	.	.	.
!	!	!	!LO:LB:g=original	!	!	!	!	!	!	!	!	!	!
=33	=33	=33	=33	=33	=33	=33	=33	=33	=33	=33	=33	=33	=33
!	!	!LO:TX:a:i:t=s.	!	!	!	!	!	!	!	!	!	!	!
8C\L	.	16cc\LL	16ee\LL	1r	.	1r	.	1r	.	1r	.	1ryy	1ryy
!	!	!	!LO:TX:a:i:t=s.	!	!	!	!	!	!	!	!	!	!
.	.	16b\	16dd\	.	.	.	.	.	.	.	.	.	.
!LO:TX:b:i:t=solo	!	!	!	!	!	!	!	!	!	!	!	!	!
8D\	6	16cc\	16ee\	.	.	.	.	.	.	.	.	.	.
.	.	16dd\JJ	16ff\JJ	.	.	.	.	.	.	.	.	.	.
8E\	6	16cc\LL	16ee\LL	.	.	.	.	.	.	.	.	.	.
.	.	16dd\	16ff\	.	.	.	.	.	.	.	.	.	.
8C\J	.	16ee\	16gg\	.	.	.	.	.	.	.	.	.	.
.	.	16cc\JJ	16ee\JJ	.	.	.	.	.	.	.	.	.	.
8F\L	.	16ff\LL	16aa\LL	.	.	.	.	.	.	.	.	.	.
.	.	16ff\	16aa\	.	.	.	.	.	.	.	.	.	.
8E\	6	16cc\	16gg\	.	.	.	.	.	.	.	.	.	.
.	.	16cc\JJ	16gg\JJ	.	.	.	.	.	.	.	.	.	.
8F\	.	16ff\LL	16aa\LL	.	.	.	.	.	.	.	.	.	.
.	.	16ff\	16aa\	.	.	.	.	.	.	.	.	.	.
8C\J	.	16ee\	16gg\	.	.	.	.	.	.	.	.	.	.
.	.	16ee\JJ	16gg\JJ	.	.	.	.	.	.	.	.	.	.
=34	=34	=34	=34	=34	=34	=34	=34	=34	=34	=34	=34	=34	=34
!LO:TX:b:i:t=Tutti	!	!	!LO:TX:a:i:t=T.	!	!	!	!	!	!	!	!	!	!
8C\L	.	16ee\LL	16gg\LL	8C/	ſu-	8c\	ſu-	8g\	{ſu-	8ee\	ſu-	1ryy	1ryy
.	.	16ee\	16gg\	.	.	.	.	.	.	.	.	.	.
!	!	!	!	!	!	!LO:TX:a:t=P:problem= plama, nuty 2-4 zamazane	!	!	!	!	!	!	!
8D\	6	16dd\	16gg\	8D/	-mens	8B\	-mens	8f\	-mens	8dd\	-mens	.	.
.	.	16dd\JJ	16gg\JJ	.	.	.	.	.	.	.	.	.	.
8E\	6	16cc\LL	16gg\LL	8E\	{ſu-	8c\	{ſu-	8g\	ſu-	8cc\	{ſu-	.	.
.	.	16cc\	16gg\	.	.	.	.	.	.	.	.	.	.
8C\J	.	16ee\	16gg\	8C/	-mens}	8e\	-mens}	8g\	-mens	8ee\	-mens}	.	.
.	.	16ee\JJ	16gg\JJ	.	.	.	.	.	.	.	.	.	.
8F\L	.	16ff\LL	16aa\LL	8F\	il-	8f\	il-	8a\	il-	8cc\	il-	.	.
.	.	16ff\	16aa\	.	.	.	.	.	.	.	.	.	.
8E\	6	16cc\	16gg\	8E\	-lud	8c\	-lud	8g\	-lud	8cc\	-lud	.	.
.	.	16cc\JJ	16gg\JJ	.	.	.	.	.	.	.	.	.	.
!	!	!	!	!	!	!	!	!	!	!LO:LB:g=original	!	!	!
8F\	.	16ff\LL	16aa\LL	8F\	a-	8f\	a-	8a\	a-	8cc\	a-	.	.
.	.	16ff\	16aa\	.	.	.	.	.	.	.	.	.	.
8C\J	.	16ee\	16ccc\	8C/	-ve	8c\	-ve	8g\	-ve}	8cc\	-ve	.	.
.	.	16ee\JJ	16ccc\JJ	.	.	.	.	.	.	.	.	.	.
!	!	!	!	!	!	!	!	!LO:LB:g=original	!	!	!	!	!
=35	=35	=35	=35	=35	=35	=35	=35	=35	=35	=35	=35	=35	=35
8F\L	.	16ff\LL	16aa\LL	8F\	pec-	8A/	pec-	8f\	pec-	8dd\	pec-	1ryy	1ryy
.	.	16ff\J	16aa\	.	.	.	.	.	.	.	.	.	.
8E\	.	8gg\J	16ccc\	8E\	-ca-	8c\	-ca-	8g\	-ca-	8cc\	-ca-	.	.
.	.	.	16ccc\JJ	.	.	.	.	.	.	.	.	.	.
!	!	!LO:LB:g=original	!	!	!	!	!	!	!	!	!	!	!
8D\	.	16ff\LL	16bb\LL	8D/	-to-	8d\	-to-	8f\	-to-	8b\	-to-	.	.
.	.	16ff\	16bb\	.	.	.	.	.	.	.	.	.	.
8C\J	.	16ee\	16ccc\	8C/	-rum	8e\	-rum	8e\	-rum	8cc\	-rum	.	.
.	.	16ee\JJ	16ccc\JJ	.	.	.	.	.	.	.	.	.	.
!LO:LB:g=original	!	!	!	!LO:LB:g=original	!	!	!	!	!	!	!	!	!
!LO:TX:t=P:problem=mixed beam	!	!	!	!	!	!	!	!	!	!	!	!	!
8G\L	.	16dd\LL	16gg\LL	8G\	mi-	8.d\	mi-	8g\	mi-	8.b\	mi-	.	.
.	.	16dd\	16bb\	.	.	.	.	.	.	.	.	.	.
8GG/J	.	16dd\	16gg\	8GG/	-ſe-	.	.	8g\	-ſe-	.	.	.	.
.	.	16dd\JJ	16bb\JJ	.	.	16d\	-se-	.	.	16b\	-ſe-	.	.
!	!	!	!LO:TX:t=P:problem=mixed beam	!	!	!	!	!	!	!	!	!	!
8C/L	.	8ee\L	8ccc\L	8C/	-re-	8e\	-re-	8g\	-re-	8cc\	-re-	.	.
8CC/J	.	8ee\J	8cc/J	8C/	-re	8e\	-re	8g\	-re	8cc\	-re	.	.
=36	=36	=36	=36	=36	=36	=36	=36	=36	=36	=36	=36	=36	=36
8G\L	.	16b\LL	16gg\LL	8G\	ſu-	8B\	ſu-	8g\	ſu-	8dd\	ſu-	1ryy	1ryy
.	.	16dd\	16bb\	.	.	.	.	.	.	.	.	.	.
8A\	.	16b\	16gg\	8A\	-mens	8A/	-mens	8f#X\	-mens	8dd\	-mens	.	.
.	.	16dd\JJ	16bb\JJ	.	.	.	.	.	.	.	.	.	.
!	!	!	!LO:LB:g=original	!	!	!LO:LB:g=original	!	!	!	!	!	!	!
8B\	.	16b\LL	16gg\LL	8B\	{ſu-	8B\	ſu-	8g\	{ſu-	8dd\	{ſu-	.	.
.	.	16dd\	16bb\	.	.	.	.	.	.	.	.	.	.
8G\J	.	16b\	16gg\	8G\	-mens}	8B\	-mens	8g\	-mens}	8dd\	-mens}	.	.
.	.	16dd\JJ	16bb\JJ	.	.	.	.	.	.	.	.	.	.
8D\L	.	16ff#X\LL	16aa\LL	8D/	il-	8A/	il-	8f#\	il-	8dd\	il-	.	.
.	.	16ee\	16aa\	.	.	.	.	.	.	.	.	.	.
8E\	.	16ff#\	16aa\	8E\	-lud	8A/	-lud	8f#\	-lud	8dd\	-lud	.	.
.	.	16gg\JJ	16aa\JJ	.	.	.	.	.	.	.	.	.	.
8F#X\	.	16ff#X\LL	16aa\LL	8F#X\	a-	8A/	a-	8f#\	a-	8dd\	a-	.	.
.	.	16ff#\	16aa\	.	.	.	.	.	.	.	.	.	.
8D\J	.	16ff#\	16aa\	8D/	-ve	8A/	-ve	8f#\	-ve	8dd\	-ve	.	.
.	.	16ff#\JJ	16aa\JJ	.	.	.	.	.	.	.	.	.	.
=37	=37	=37	=37	=37	=37	=37	=37	=37	=37	=37	=37	=37	=37
8G\L	.	16b\LL	16gg\LL	8G\	{ſu-	8B\	{ſu-	8g\	{ſu-	8dd\	{ſu-	1ryy	1ryy
.	.	16dd\	16bb\	.	.	.	.	.	.	.	.	.	.
8A\	6|	16b\	16gg\	8A\	-mens	8A\	-mens	8f#X\	-mens	8dd\	-mens	.	.
.	.	16dd\JJ	16bb\JJ	.	.	.	.	.	.	.	.	.	.
8B\	.	16b\LL	16gg\LL	8B\	ſu-	8B\	ſu-	8g\	ſu-	8dd\	ſu-	.	.
.	.	16dd\	16bb\	.	.	.	.	.	.	.	.	.	.
8G\J	.	16b\	16gg\	8G\	-mens	8B\	-mens	8g\	-mens	8dd\	-mens	.	.
.	.	16dd\JJ	16bb\JJ	.	.	.	.	.	.	.	.	.	.
8D\L	.	16ff#X\LL	16ddd\LL	8D\	il-	8A/	il-	8f#X\	il-	8dd\	il-	.	.
.	.	16ee\	16aa\	.	.	.	.	.	.	.	.	.	.
8E\	.	16ff#\	16ddd\	8E\	-lud	8A/	-lud	8f#\	-lud	8dd\	-lud	.	.
.	.	16gg\JJ	16aa\JJ	.	.	.	.	.	.	.	.	.	.
8F#X\	6	16ff#\LL	16ddd\LL	8F#X\	a-	8A/	a-	8f#\	a-	8dd\	a-	.	.
.	.	16ff#\	16aa\	.	.	.	.	.	.	.	.	.	.
8D\J	.	16ff#\	16ddd\	8D/	-ve}	8A/	-ve}	8f#\	-ve}	8dd\	-ve}	.	.
.	.	16ff#\JJ	16aa\JJ	.	.	.	.	.	.	.	.	.	.
!	!	!	!	!	!	!	!	!LO:LB:g=original	!	!LO:LB:g=original	!	!	!
=38	=38	=38	=38	=38	=38	=38	=38	=38	=38	=38	=38	=38	=38
8c\L	.	16cc\LL	16gg\LL	8c\	pec-	8c\	pec-	8g\	pec-	8ee\	pec-	1ryy	1ryy
.	.	16cc\	16gg\	.	.	.	.	.	.	.	.	.	.
8B\	6	16gg\	16bb\	8B\	-ca-	8d\	-ca-	8g\	-ca-	8dd\	-ca-	.	.
.	.	16gg\JJ	16bb\JJ	.	.	.	.	.	.	.	.	.	.
!	!	!LO:LB:g=original	!	!	!	!	!	!	!	!	!	!	!
8A\	6|	16ff#X\LL	16ccc\LL	8A\	-to-	8c\	-to-	8a\	-to-	8cc\	-to-	.	.
.	.	16ff#\	16ccc\	.	.	.	.	.	.	.	.	.	.
8G\J	.	16dd\	16gg\	8G\	-ru(m)	8d\	-rum	8g\	-rum	8b\	-rum	.	.
.	.	16dd\JJ	16gg\JJ	.	.	.	.	.	.	.	.	.	.
!	!	!	!	!LO:LB:g=original	!	!	!	!	!	!	!	!	!
!	!	!	!LO:TX:t=P:problem=mixed beam	!	!	!	!	!	!	!	!	!	!
!LO:TX:t=P:problem=mixed beam	!	!	!	!	!	!	!	!	!	!	!	!	!
8d\L	#	16ff#\LL	16aa\LL	8.D/	mi-	8.d\	mi-	8.f#X\	mi-	8.a\	mi-	.	.
.	.	16ff#\	16a/	.	.	.	.	.	.	.	.	.	.
8D/J	.	16ff#\	16a/	.	.	.	.	.	.	.	.	.	.
.	.	16ff#\JJ	16aa\JJ	16D/	-ſe-	16d\	-ſe-	16f#\	-ſe-	16a\	-ſe-	.	.
!LO:TX:t=P:problem=mixed beam	!	!	!	!	!	!	!	!	!	!	!	!	!
8G\L	.	16gg\LL	16bb\LL	8GG/	-re-	8e\	-re-	8g\	-re-	8b\	-re-	.	.
.	.	16gg\	16bb\	.	.	.	.	.	.	.	.	.	.
8GG/J	.	16gg\	16bb\	8GG/	-re	8e\	-re	8g\	-re	8b\	-re	.	.
.	.	16gg\JJ	16bb\JJ	.	.	.	.	.	.	.	.	.	.
!LO:PB:g=original	!	!	!	!	!	!	!	!	!	!	!	!	!
=39	=39	=39	=39	=39	=39	=39	=39	=39	=39	=39	=39	=39	=39
8c\L	.	16ee\LL	16gg\LL	8c\	ſu-	8c\	ſu-	8g\	ſu-	8ee\	ſu-	1ryy	1ryy
.	.	16cc\	16gg\	.	.	.	.	.	.	.	.	.	.
8c\	.	16cc\	16gg\	8c\	-mens	8e\	-mens	8g\	-mens	8ee\	-mens	.	.
!	!	!	!LO:TX:b:i:t=Vertatur cito	!	!	!	!	!	!	!	!	!	!
.	.	16ee\JJ	16gg\JJ	.	.	.	.	.	.	.	.	.	.
!	!	!	!LO:PB:g=original	!	!	!	!	!	!	!	!	!	!
8c\	.	16ee\LL	16gg\LL	8c\	{ſu-	8c\	{ſu-	8g\	{ſu-	8ee\	{ſu-	.	.
.	.	16ee\	16gg\	.	.	.	.	.	.	.	.	.	.
8c\J	.	16ee\	16gg\	8c\	-mens}	8e\	-mens}	8g\	-mens}	8ee\	-mens}	.	.
.	.	16ee\JJ	16gg\JJ	.	.	.	.	.	.	.	.	.	.
!	!	!	!	!	!	!LO:LB:g=original	!	!	!	!	!	!	!
8B\L	6	16dd\LL	16gg\LL	8B\	il-	8B\	il-	8g\	il-	8dd\	il-	.	.
.	.	16dd\	16gg\	.	.	.	.	.	.	.	.	.	.
8A\	6|	16cc\	16gg\	8A\	-lud	8c\	-lud	8a\	-lud	8cc\	-lud	.	.
.	.	16cc\JJ	16gg\JJ	.	.	.	.	.	.	.	.	.	.
8B\	6	16b/LL	16gg\LL	8B\	a-	8d\	a-	8g\	a-	8dd\	a-	.	.
.	.	16b/	16gg\	.	.	.	.	.	.	.	.	.	.
8G\J	.	16b/	16gg\	8G\	-ve	8B\	-ve	8g\	-ve	8dd\	-ve	.	.
.	.	16b/JJ	16gg\JJ	.	.	.	.	.	.	.	.	.	.
=40	=40	=40	=40	=40	=40	=40	=40	=40	=40	=40	=40	=40	=40
8c\L	.	16ee\LL	16gg\LL	8c\	ſu-	8c\	{ſu-	8g\	{ſu-	8ee\	{ſu-	1ryy	1ryy
.	.	16cc\	16gg\	.	.	.	.	.	.	.	.	.	.
8c\	.	16cc\	16gg\	8c\	-mens	8e\	-mens	8g\	-mens	8ee\	-mens	.	.
.	.	16ee\JJ	16gg\JJ	.	.	.	.	.	.	.	.	.	.
8c\	.	16ee\LL	16gg\LL	8c\	{ſu-	8c\	ſu-	8g\	ſu-	8ee\	su-	.	.
.	.	16ee\	16gg\	.	.	.	.	.	.	.	.	.	.
8c\J	.	16ee\	16gg\	8c\	-mens}	8e\	-mens	8g\	-mens	8ee\	-mens	.	.
.	.	16ee\JJ	16gg\JJ	.	.	.	.	.	.	.	.	.	.
8B\L	.	16dd\LL	16gg\LL	8B\	il-	8B\	il-	8g\	il-	8dd\	il-	.	.
.	.	16dd\	16gg\	.	.	.	.	.	.	.	.	.	.
8A\	6	16cc\	16gg\	8A\	-lud	8c\	-lud	8a\	-lud	8cc\	-lud	.	.
.	.	16cc\JJ	16gg\JJ	.	.	.	.	.	.	.	.	.	.
8B\	6|	16dd\LL	16gg\LL	8B\	a-	8d\	a-	8g\	a-	8dd\	a-	.	.
.	.	16dd\	16gg\	.	.	.	.	.	.	.	.	.	.
8G\J	6	16dd\	16gg\	8G\	-ve	8B\	-ve}	8g\	-ve}	8dd\	-ve}	.	.
.	.	16dd\JJ	16gg\JJ	.	.	.	.	.	.	.	.	.	.
!	!	!LO:LB:g=original	!	!	!	!	!	!LO:LB:g=original	!	!	!	!	!
=41	=41	=41	=41	=41	=41	=41	=41	=41	=41	=41	=41	=41	=41
8c\L	.	16ee\LL	16gg\LL	8c\	pec-	8.c\	pec-	8g\	pec-	8ee\	pec-	1ryy	1ryy
.	.	16ee\	16gg\	.	.	.	.	.	.	.	.	.	.
8B\	6	16dd\	16bb\	8B\	-ca-	.	.	8g\	-ca-	8dd\	-ca-	.	.
.	.	16dd\JJ	16bb\JJ	.	.	16d\	-ca-	.	.	.	.	.	.
!	!	!	!	!LO:LB:g=original	!	!	!	!	!	!	!	!	!
8A\	6-	16ff\LL	16aa\LL	8A\	-to-	8.c\	-to-	8fn\	-to-	8ff\	-to-	.	.
.	.	16ff\	16aa\	.	.	.	.	.	.	.	.	.	.
8G\J	6	16ee\	16bb\	8G\	-rum	.	.	8g\	-rum	8ee\	-rum	.	.
.	.	16ee\JJ	16bb\JJ	.	.	16B\	-rum	.	.	.	.	.	.
!	!	!	!	!	!	!	!	!	!	!LO:LB:g=original	!	!	!
8F\L	6	16ff\LL	16aa\LL	8F\	pec-	8A\	{pec-	8f\	mi-	8dd\	pec-	.	.
.	.	16ff\	16aa\	.	.	.	.	.	.	.	.	.	.
8E\	6	16gg\	16ccc\	8E\	-ca-	8c\	-ca-	8g\	-ſe-	8cc\	-ca-	.	.
.	.	16gg\JJ	16ccc\JJ	.	.	.	.	.	.	.	.	.	.
8D\	6	16ff\LL	16bb\LL	8D/	-to-	8d\	-to-	8f\	-re-	8b\	-to-	.	.
.	.	16ff\	16bb\	.	.	.	.	.	.	.	.	.	.
8C\J	.	16ee\	16ccc\	8C/	-rum	8e\	-rum}	8g\	-re	16cc\LL	-rum	.	.
.	.	16ee\JJ	16ccc\JJ	.	.	.	.	.	.	16dd\JJ	.	.	.
!	!	!	!LO:LB:g=original	!	!	!	!	!	!	!	!	!	!
=42	=42	=42	=42	=42	=42	=42	=42	=42	=42	=42	=42	=42	=42
!LO:TX:t=P:problem=mixed beam	!	!	!	!	!	!	!	!	!	!	!	!	!
8G\L	4	16dd\LL	16bb\LL	8G\	mi-	8.d\	mi-	8.g\	mi-	8.b\	mi-	1ryy	1ryy
.	3	16dd\	16gg\	.	.	.	.	.	.	.	.	.	.
8GG/J	.	16dd\	16bb\	8GG/	-ſe-	.	.	.	.	.	.	.	.
.	.	16dd\JJ	16bb\JJ	.	.	16d\	-ſe-	16g\	-ſe-	16b\	-ſe-	.	.
!LO:TX:t=P:problem=mixed beam	!	!	!LO:TX:t=P:problem=mixed beam	!	!	!	!	!	!	!	!	!	!
8C\L	.	16ee\LL	16ccc\LL	8C/	-re-	8e\	-re-	8g\	-re-	8cc\	-re-	.	.
.	.	16ee\	16cc/	.	.	.	.	.	.	.	.	.	.
8CC/J	.	16ee\	16cc/	8C/	-re	8e\	-re	8g\	-re	8cc\	-re	.	.
.	.	16ee\JJ	16cc/JJ	.	.	.	.	.	.	.	.	.	.
!	!	!	!	!	!	!LO:LB:g=original	!	!	!	!	!	!	!
8F\L	.	16ff\LL	16aa\LL	8F\	pec-	8A\	pec-	8f\	pec-	8cc\	pec-	.	.
.	.	16ff\	16aa\	.	.	.	.	.	.	.	.	.	.
8BB\	6 5	16dd\	16bb\	8BB/	-ca-	8B\	-ca-	8f\	-ca-	8dd\	-ca-	.	.
.	.	16dd\JJ	16bb\JJ	.	.	.	.	.	.	.	.	.	.
8C\	.	16ee\LL	16gg\LL	8C/	-to-	8G/	-to-	8g\	-to-	8ee\	-to-	.	.
.	.	16ee\	16gg\	.	.	.	.	.	.	.	.	.	.
8F\J	.	16cc\	16ccc\	8F\	-rum	8c\	-rum	8a\	-rum	16dd\LL	-rum	.	.
.	.	16ee\JJ	16ccc\JJ	.	.	.	.	.	.	16cc\JJ	.	.	.
!LO:LB:g=original	!	!	!	!	!	!	!	!	!	!	!	!	!
=43	=43	=43	=43	=43	=43	=43	=43	=43	=43	=43	=43	=43	=43
!LO:TX:t=P:problem=mixed beam	!	!	!	!	!	!	!	!	!	!	!	!	!
8G\L	4	16dd\LL	16bb\LL	8G\	mi-	8.d\	mi-	8.g\	mi-	8.b\	mi-	1ryy	1ryy
.	3	16cc\	16aa\	.	.	.	.	.	.	.	.	.	.
8GG/J	.	16dd\	16bb\	8GG/	-ſe-	.	.	.	.	.	.	.	.
.	.	16dd\JJ	16bb\JJ	.	.	16d\	-ſe-	16g\	-ſe-	16b\	-ſe-	.	.
8C/L	.	16ee\LL	16ccc\LL	8C/	-re-	8e\	-re-	8g\	-re-	8cc\	-re-	.	.
.	.	16cc\	16gg\	.	.	.	.	.	.	.	.	.	.
8C/J	.	16cc\	16gg\	8C/	-re	8c\	-re	8g\	-re	8cc\	-re	.	.
.	.	16ee\JJ	16ccc\JJ	.	.	.	.	.	.	.	.	.	.
!LO:TX:t=P:problem=mixed beam	!	!	!	!	!	!	!	!	!	!	!	!	!
8G\L	.	16dd\LL	16bb\LL	8GG/	mi-	8.d\	mi-	8.g\	mi-	8.b\	mi-	.	.
.	.	16b\	16gg\	.	.	.	.	.	.	.	.	.	.
8GG/J	.	16b\	16gg\	8GG/	-ſe-	.	.	.	.	.	.	.	.
.	.	16dd\JJ	16bb\JJ	.	.	16d\	-ſe-	16g\	-ſe-	16b\	-ſe-	.	.
!	!	!	!	!	!	!	!	!LO:LB:g=original	!	!	!	!	!
8C/L	.	8ee\L	8ccc\L	8C/	-re-	8e\	-re-	8g\	-re-	8cc\	-re-	.	.
8CC/J	.	8ee\J	8ccc\J	8C/	-re	8e\	-re	8g\	-re.	8cc\	-re	.	.
==	==	==	==	==	==	==	==	==	==	==	==	==	==
*-	*-	*-	*-	*-	*-	*-	*-	*-	*-	*-	*-	*-	*-
!!!system-decoration: [(g1)][(g2)][(g3)][(g4)]
!!!ENC: Anna Matuszewska
!!!END: 2020-01-11
!!!ENC: Mateusz Solarz
!!!END: 2020-06-05
